assets/img/braze_icons/dropper.svg

<svg fill="none" height="24" viewBox="0 0 24 24" width="24" xmlns="http://www.w3.org/2000/svg"><g fill="#801ed7"><path d="m1.88976 22.9937c-.23247-.0258-.43881-.1329-.59406-.2894-.15652-.1552-.26355-.3616-.28938-.594-.029682-.2671.03116-.5613.08778-.8351.01417-.0685.02807-.1357.04022-.2009.09114-.4888.23991-1.1665.4717-1.9281.45606-1.4985 1.26628-3.4327 2.68707-4.8535l6.29271-6.2927-.79291-.79289c-.39052-.39053-.39052-1.02369 0-1.41422.39051-.39052 1.02371-.39052 1.41421 0l7 7.00001c.3905.3905.3905 1.0237 0 1.4142s-1.0237.3905-1.4142 0l-.7929-.7929-6.2927 6.2927c-1.42078 1.4208-3.35496 2.231-4.85344 2.6871-.7616.2318-1.43934.3805-1.92819.4717-.06519.0121-.13239.026-.20087.0402-.27378.0566-.56794.1175-.83504.0878z"/><path d="m14.5456 4.04021c-.396.39601-.594.59402-.6682.82235-.0653.20084-.0653.41719 0 .61803.0742.22833.2722.42634.6682.82236l3.1515 3.15147c.396.39602.594.59408.8223.66818.2009.0653.4172.0653.6181 0 .2283-.0741.4263-.27216.8223-.66817l1.7475-1.74751c1.4951-1.49509 1.4951-3.91911 0-5.41421l-.0023-.00228c-1.4953-1.492814-3.9176-1.492058-5.4119.00228z"/></g></svg>

<svg width="24" height="24" viewBox="0 0 24 24" fill="none" xmlns="http://www.w3.org/2000/svg">
<path d="M1.88976 22.9937C1.65729 22.9679 1.45095 22.8608 1.2957 22.7043C1.13918 22.5491 1.03215 22.3427 1.00632 22.1103C0.976638 21.8432 1.03748 21.549 1.0941 21.2752C1.10827 21.2067 1.12217 21.1395 1.13432 21.0743C1.22546 20.5855 1.37423 19.9078 1.60602 19.1462C2.06208 17.6477 2.8723 15.7135 4.29309 14.2927L10.5858 8L9.79289 7.20711C9.40237 6.81658 9.40237 6.18342 9.79289 5.79289C10.1834 5.40237 10.8166 5.40237 11.2071 5.79289L18.2071 12.7929C18.5976 13.1834 18.5976 13.8166 18.2071 14.2071C17.8166 14.5976 17.1834 14.5976 16.7929 14.2071L16 13.4142L9.7073 19.7069C8.28652 21.1277 6.35234 21.9379 4.85386 22.394C4.09226 22.6258 3.41452 22.7745 2.92567 22.8657C2.86048 22.8778 2.79328 22.8917 2.7248 22.9059C2.45102 22.9625 2.15686 23.0234 1.88976 22.9937Z" fill="#801ED7"/>
<path d="M14.5456 4.04021C14.1496 4.43622 13.9516 4.63423 13.8774 4.86256C13.8121 5.0634 13.8121 5.27975 13.8774 5.48059C13.9516 5.70892 14.1496 5.90693 14.5456 6.30295L17.6971 9.45442C18.0931 9.85044 18.2911 10.0485 18.5194 10.1226C18.7203 10.1879 18.9366 10.1879 19.1375 10.1226C19.3658 10.0485 19.5638 9.85044 19.9598 9.45443L21.7073 7.70692C23.2024 6.21183 23.2024 3.78781 21.7073 2.29271L21.705 2.29043C20.2097 0.797616 17.7874 0.798372 16.2931 2.29271L14.5456 4.04021Z" fill="#801ED7"/>
</svg>
